assets/img/bootstrap.svg

<svg height="111.148" viewBox="0 0 111.148 111.148" width="111.148" xmlns="http://www.w3.org/2000/svg"><path d="m0 96.817a14.331 14.331 0 0 0 14.332 14.332h82.484a14.331 14.331 0 0 0 14.332-14.332v-82.485a14.331 14.331 0 0 0 -14.331-14.332h-82.485a14.331 14.331 0 0 0 -14.332 14.332v82.484z" fill="#563d7c"/><path d="m86.873 77.739v-15.739h13.855a21.551 21.551 0 0 1 3.817.33 9.528 9.528 0 0 1 3.252 1.178 6.283 6.283 0 0 1 2.262 2.356 7.825 7.825 0 0 1 .848 3.864q0 4.242-2.545 6.127a10.636 10.636 0 0 1 -6.5 1.885zm-14.798-27.239v67.3h32.612a34.406 34.406 0 0 0 8.813-1.131 23.57 23.57 0 0 0 7.635-3.487 17.178 17.178 0 0 0 5.325-6.079 18.518 18.518 0 0 0 1.979-8.813 18.648 18.648 0 0 0 -3.063-10.792 16.176 16.176 0 0 0 -9.284-6.268 16.773 16.773 0 0 0 6.834-5.561 14.742 14.742 0 0 0 2.309-8.483 18.051 18.051 0 0 0 -1.555-7.917 12.933 12.933 0 0 0 -4.383-5.137 18.916 18.916 0 0 0 -6.786-2.78 41.9 41.9 0 0 0 -8.766-.848zm14.8 55.8v-18.476h16.115a12.468 12.468 0 0 1 7.729 2.215q2.922 2.215 2.922 7.4a9.249 9.249 0 0 1 -.9 4.336 7.112 7.112 0 0 1 -2.4 2.686 10.178 10.178 0 0 1 -3.487 1.414 19.787 19.787 0 0 1 -4.147.424h-15.834z" fill="#fff" transform="translate(-40.782 -28.574)"/></svg>

<svg xmlns="http://www.w3.org/2000/svg" width="111.148" height="111.148" viewBox="0 0 111.148 111.148"><path fill="#563d7c" d="M0,96.817a14.331,14.331,0,0,0,14.332,14.332H96.816a14.331,14.331,0,0,0,14.332-14.332V14.332A14.331,14.331,0,0,0,96.817,0H14.332A14.331,14.331,0,0,0,0,14.332V96.816Z" data-name="Path 293"/><path fill="#fff" d="M86.873,77.739V62h13.855a21.551,21.551,0,0,1,3.817.33,9.528,9.528,0,0,1,3.252,1.178,6.283,6.283,0,0,1,2.262,2.356,7.825,7.825,0,0,1,.848,3.864q0,4.242-2.545,6.127a10.636,10.636,0,0,1-6.5,1.885ZM72.075,50.5v67.3h32.612a34.406,34.406,0,0,0,8.813-1.131,23.57,23.57,0,0,0,7.635-3.487,17.178,17.178,0,0,0,5.325-6.079,18.518,18.518,0,0,0,1.979-8.813,18.648,18.648,0,0,0-3.063-10.792,16.176,16.176,0,0,0-9.284-6.268,16.773,16.773,0,0,0,6.834-5.561,14.742,14.742,0,0,0,2.309-8.483,18.051,18.051,0,0,0-1.555-7.917,12.933,12.933,0,0,0-4.383-5.137,18.916,18.916,0,0,0-6.786-2.78,41.9,41.9,0,0,0-8.766-.848Zm14.8,55.8V87.824H102.99a12.468,12.468,0,0,1,7.729,2.215q2.922,2.215,2.922,7.4a9.249,9.249,0,0,1-.9,4.336,7.112,7.112,0,0,1-2.4,2.686,10.178,10.178,0,0,1-3.487,1.414,19.787,19.787,0,0,1-4.147.424H86.873Z" data-name="Path 294" transform="translate(-40.782 -28.574)"/></svg>
